images/about/about-android.svg

<?xml version="1.0" encoding="UTF-8"?>
<svg width="250px" height="150px" viewBox="0 0 250 150" version="1.1" xmlns="http://www.w3.org/2000/svg" xmlns:xlink="http://www.w3.org/1999/xlink">
    <title>about-android</title>
    <g id="about-android" stroke="none" stroke-width="1" fill="none" fill-rule="evenodd">
        <g id="Android_tv_logo" transform="translate(0.000000, 52.000000)" fill-rule="nonzero">
            <g id="g33668" transform="translate(125.000000, 22.582996) scale(-1, 1) rotate(-180.000000) translate(-125.000000, -22.582996) translate(0.000000, 0.582996)">
                <g id="g33674" transform="translate(0.346370, 0.918630)" fill="#77C159">
                    <path d="M16.5925533,7.29627663 C11.9424902,7.29627663 8.18012876,11.1830822 8.18012876,16.0156634 C8.18012876,20.7569855 11.9424902,24.701865 16.5925533,24.701865 C19.6829163,24.701865 22.7732794,23.262461 24.0882392,20.6325413 C24.1794982,20.4500232 24.2997943,20.2052831 24.2997943,19.8983208 L24.2997943,12.1910798 C24.2997943,12.0375987 24.2085352,11.7015995 24.1463131,11.6103405 C22.7110573,8.98042079 19.7741754,7.29627663 16.5925533,7.29627663 M31.8577023,0.659255326 L31.8577023,31.2476273 L24.2997943,31.2476273 L24.2997943,28.6799296 C22.1883918,30.72911 19.313732,31.8574036 15.7670737,31.8574036 C7.10990907,31.8574036 0.535109843,24.822161 0.535109843,16.0156634 C0.535109843,7.17183248 7.10990907,0.0453308555 15.7670737,0.0453308555 C19.313732,0.0453308555 22.1883918,1.23999469 24.2997943,3.28917502 L24.2997943,0.659255326 L31.8577023,0.659255326 Z M64.6777726,0.659255326 L64.6777726,17.2061791 C64.6777726,25.3448264 58.3477135,31.8574036 50.2712882,31.8574036 C42.165826,31.8574036 35.8648039,25.3448264 35.8648039,17.2061791 L35.8648039,0.659255326 L43.4185637,0.659255326 L43.4185637,17.2061791 C43.4185637,21.2132807 46.2351497,24.2746068 50.2712882,24.2746068 C54.2783899,24.2746068 57.1240127,21.2132807 57.1240127,17.2061791 L57.1240127,0.659255326 L64.6777726,0.659255326 L64.6777726,0.659255326 Z M83.8878012,7.29627663 C79.2377381,7.29627663 75.4753767,11.1830822 75.4753767,16.0156634 C75.4753767,20.7569855 79.2377381,24.701865 83.8878012,24.701865 C86.9781642,24.701865 89.9150461,23.171202 91.3834871,20.6325413 C91.4747461,20.4500232 91.5950421,20.2052831 91.5950421,19.8983208 L91.5950421,12.1578947 C91.5950421,12.0044136 91.5037831,11.7015995 91.4457092,11.6103405 C90.0063052,8.98042079 87.0694232,7.29627663 83.8878012,7.29627663 M99.1529502,0.659255326 L99.1529502,40.4233092 L91.5950421,40.4233092 L91.5950421,28.6799296 C89.4877879,30.72911 86.6089799,31.9528108 83.0623216,31.9528108 C74.405157,31.9528108 67.8303577,24.822161 67.8303577,16.0156634 C67.8303577,7.17183248 74.405157,0.0453308555 83.0623216,0.0453308555 C86.6089799,0.0453308555 89.4877879,1.23999469 91.5950421,3.28917502 L91.5950421,0.659255326 L99.1529502,0.659255326 Z M110.713812,0.659255326 L110.713812,16.994624 C110.713812,21.8272052 113.252472,24.3949028 118.085053,24.3949028 L118.085053,31.8574036 C108.357669,31.8574036 103.160052,26.6888233 103.160052,16.994624 L103.160052,0.659255326 L110.713812,0.659255326 L110.713812,0.659255326 Z M134.60294,7.6613128 C130.015099,7.6613128 126.285923,11.3946373 126.285923,16.0156634 C126.285923,20.6035043 130.015099,24.3326807 134.60294,24.3326807 C139.253003,24.3326807 142.957291,20.6035043 142.957291,16.0156634 C142.957291,11.3946373 139.253003,7.6613128 134.60294,7.6613128 M134.60294,0.0453308555 C143.446771,0.0453308555 150.60231,7.17183248 150.60231,16.0156634 C150.60231,24.822161 143.446771,31.8574036 134.60294,31.8574036 C125.796443,31.8574036 118.636756,24.822161 118.636756,16.0156634 C118.636756,7.17183248 125.796443,0.0453308555 134.60294,0.0453308555 M157.82007,33.5705847 C160.238435,33.5705847 162.196356,35.5616911 162.196356,37.9759076 C162.196356,40.4233092 160.238435,42.3812305 157.82007,42.3812305 C155.405854,42.3812305 153.447933,40.4233092 153.447933,37.9759076 C153.447933,35.5616911 155.405854,33.5705847 157.82007,33.5705847 M161.582432,31.2476273 L154.024524,31.2476273 L154.024524,0.659255326 L161.582432,0.659255326 L161.582432,31.2476273 Z M181.070386,7.29627663 C176.420323,7.29627663 172.657961,11.1830822 172.657961,16.0156634 C172.657961,20.7569855 176.420323,24.701865 181.070386,24.701865 C184.160749,24.701865 187.093482,23.171202 188.561923,20.6325413 C188.657331,20.4500232 188.777627,20.2052831 188.777627,19.8983208 L188.777627,12.1288578 C188.777627,11.9753767 188.686368,11.7015995 188.624145,11.6103405 C187.18889,8.98042079 184.252008,7.29627663 181.070386,7.29627663 M196.331386,0.659255326 L196.331386,40.4233092 L188.777627,40.4233092 L188.777627,28.6799296 C186.666224,30.72911 183.791564,31.8574036 180.244906,31.8574036 C171.587741,31.8574036 165.008794,24.822161 165.008794,16.0156634 C165.008794,7.17183248 171.587741,0.0162938873 180.244906,0.0162938873 C183.791564,0.0162938873 186.666224,1.23999469 188.777627,3.28917502 L188.777627,0.659255326 L196.331386,0.659255326 L196.331386,0.659255326 Z" id="path33676"></path>
                </g>
                <g id="g33678" transform="translate(202.457009, 0.428503)" fill="#868686">
                    <path d="M34.3332448,1.14813832 L46.752771,31.7696954 L40.5139709,31.7696954 L30.3551802,5.217462 L32.4665826,5.217462 L22.282903,31.7365103 L15.8574368,31.7365103 L28.2769629,1.14813832 L34.3332448,1.14813832 Z M14.3599589,0.783102144 L14.3889958,6.22545961 L13.7169974,6.22545961 C9.28263755,6.22545961 6.1590894,8.88856441 6.1590894,13.3851463 L6.1590894,26.6882259 L14.1442557,26.6882259 L14.1442557,31.7365103 L6.1590894,31.7365103 L6.1590894,40.0286387 L0.625472888,40.0286387 L0.625472888,13.3851463 C0.625472888,5.46220216 5.76501626,0.783102144 13.7169974,0.783102144 L14.3599589,0.783102144 Z" id="path33680"></path>
                </g>
            </g>
        </g>
    </g>
</svg>

<svg height="150" viewBox="0 0 250 150" width="250" xmlns="http://www.w3.org/2000/svg"><g fill="none" transform="matrix(1 0 0 -1 0 96.582996)"><path d="m16.5925533 7.29627663c-4.6500631 0-8.41242454 3.88680557-8.41242454 8.71938677 0 4.7413221 3.76236144 8.6862016 8.41242454 8.6862016 3.090363 0 6.1807261-1.439404 7.4956859-4.0693237.091259-.1825181.2115551-.4272582.2115551-.7342205v-7.707241c0-.1534811-.0912591-.4894803-.1534812-.5807393-1.4352558-2.62991971-4.3721377-4.31406387-7.5537598-4.31406387m15.265149-6.6370213v30.58837197h-7.557908v-2.5676977c-2.1114025 2.0491804-4.9860623 3.177474-8.5327206 3.177474-8.65716463 0-15.23196386-7.0352426-15.23196386-15.8417402 0-8.84383092 6.57479923-15.97033254 15.23196386-15.97033254 3.5466583 0 6.4213181 1.19466383 8.5327206 3.24384416v-2.62991969zm32.8200703 0v16.54692377c0 8.1386473-6.3300591 14.6512245-14.4064844 14.6512245-8.1054622 0-14.4064843-6.5125772-14.4064843-14.6512245v-16.54692377h7.5537598v16.54692377c0 4.0071016 2.816586 7.0684277 6.8527245 7.0684277 4.0071017 0 6.8527245-3.0613261 6.8527245-7.0684277v-16.54692377zm19.2100286 6.6370213c-4.6500631 0-8.4124245 3.88680557-8.4124245 8.71938677 0 4.7413221 3.7623614 8.6862016 8.4124245 8.6862016 3.090363 0 6.0272449-1.530663 7.4956859-4.0693237.091259-.1825181.211555-.4272582.211555-.7342205v-7.7404261c0-.1534811-.091259-.4562952-.1493329-.5475542-1.439404-2.62991971-4.376286-4.31406387-7.557908-4.31406387m15.265149-6.6370213v39.76405387h-7.5579081v-11.7433796c-2.1072542 2.0491804-4.9860622 3.2728812-8.5327205 3.2728812-8.6571646 0-15.2319639-7.1306498-15.2319639-15.9371474 0-8.84383092 6.5747993-15.97033254 15.2319639-15.97033254 3.5466583 0 6.4254663 1.19466383 8.5327205 3.24384416v-2.62991969zm11.5608618 0v16.33536867c0 4.8325812 2.53866 7.4002788 7.371241 7.4002788v7.4625008c-9.727384 0-14.925001-5.1685803-14.925001-14.8627796v-16.33536867zm23.889128 7.00205747c-4.587841 0-8.317017 3.7333245-8.317017 8.3543506 0 4.5878409 3.729176 8.3170173 8.317017 8.3170173 4.650063 0 8.354351-3.7291764 8.354351-8.3170173 0-4.6210261-3.704288-8.3543506-8.354351-8.3543506m0-7.61598194c8.843831 0 15.99937 7.12650162 15.99937 15.97033254 0 8.8064976-7.155539 15.8417402-15.99937 15.8417402-8.806497 0-15.966184-7.0352426-15.966184-15.8417402 0-8.84383092 7.159687-15.97033254 15.966184-15.97033254m23.21713 33.52525384c2.418365 0 4.376286 1.9911064 4.376286 4.4053229 0 2.4474016-1.957921 4.4053229-4.376286 4.4053229-2.414216 0-4.372137-1.9579213-4.372137-4.4053229 0-2.4142165 1.957921-4.4053229 4.372137-4.4053229m3.762362-2.3229574h-7.557908v-30.58837197h7.557908zm19.487954-23.95135067c-4.650063 0-8.412425 3.88680557-8.412425 8.71938677 0 4.7413221 3.762362 8.6862016 8.412425 8.6862016 3.090363 0 6.023096-1.530663 7.491537-4.0693237.095408-.1825181.215704-.4272582.215704-.7342205v-7.769463c0-.1534811-.091259-.4272583-.153482-.5185173-1.435255-2.62991971-4.372137-4.31406387-7.553759-4.31406387m15.261-6.6370213v39.76405387h-7.553759v-11.7433796c-2.111403 2.0491804-4.986063 3.177474-8.532721 3.177474-8.657165 0-15.236112-7.0352426-15.236112-15.8417402 0-8.84383092 6.578947-15.99936951 15.236112-15.99936951 3.546658 0 6.421318 1.2237008 8.532721 3.27288113v-2.62991969z" fill="#77c159" transform="translate(.34637 .91863)"/><path d="m34.3332448 1.14813832 12.4195262 30.62155708h-6.2388001l-10.1587907-26.5522334h2.1114024l-10.1836796 26.5190483h-6.4254662l12.4195261-30.58837198zm-19.9732859-.36503618.0290369 5.44235747h-.6719984c-4.43435985 0-7.557908 2.6631048-7.557908 7.15968669v13.3030796h7.9851663v5.0482844h-7.9851663v8.2921284h-5.53361651v-26.6434924c0-7.92294414 5.13954337-12.60204416 13.09152451-12.60204416z" fill="#868686" transform="translate(202.457009 .428503)"/></g></svg>
